src/assets/svg/icons/fa/nuevos/classic/thin/location-crosshairs classic thin.svg

<svg xmlns="http://www.w3.org/2000/svg" viewBox="0 0 512 512"><!--! Font Awesome Pro 6.4.0 by @fontawesome - https://fontawesome.com License - https://fontawesome.com/license (Commercial License) Copyright 2023 Fonticons, Inc. --><path d="M256 0c4.4 0 8 3.6 8 8V64.2c99.7 4.1 179.8 84.2 183.8 183.8H504c4.4 0 8 3.6 8 8s-3.6 8-8 8H447.8c-4.1 99.7-84.2 179.8-183.8 183.8V504c0 4.4-3.6 8-8 8s-8-3.6-8-8V447.8C148.3 443.8 68.2 363.7 64.2 264H8c-4.4 0-8-3.6-8-8s3.6-8 8-8H64.2C68.2 148.3 148.3 68.2 248 64.2V8c0-4.4 3.6-8 8-8zM80 256a176 176 0 1 0 352 0A176 176 0 1 0 80 256zm256 0a80 80 0 1 0 -160 0 80 80 0 1 0 160 0zm-176 0a96 96 0 1 1 192 0 96 96 0 1 1 -192 0z"/></svg>

<svg xmlns="http://www.w3.org/2000/svg" viewBox="0 0 512 512"><path d="M352 256C352 309 309 352 256 352C202.1 352 160 309 160 256C160 202.1 202.1 160 256 160C309 160 352 202.1 352 256zM256 176C211.8 176 176 211.8 176 256C176 300.2 211.8 336 256 336C300.2 336 336 300.2 336 256C336 211.8 300.2 176 256 176zM256 0C260.4 0 264 3.582 264 8V64.16C363.7 68.25 443.8 148.3 447.8 248H504C508.4 248 512 251.6 512 256C512 260.4 508.4 264 504 264H447.8C443.8 363.7 363.7 443.8 264 447.8V504C264 508.4 260.4 512 256 512C251.6 512 248 508.4 248 504V447.8C148.3 443.8 68.25 363.7 64.16 264H8C3.582 264 0 260.4 0 256C0 251.6 3.582 248 8 248H64.16C68.25 148.3 148.3 68.25 248 64.16V8C248 3.582 251.6 0 256 0V0zM80 256C80 353.2 158.8 432 256 432C353.2 432 432 353.2 432 256C432 158.8 353.2 80 256 80C158.8 80 80 158.8 80 256z"/></svg>
